X:1
T:Complete in Thee, LMD
T:Talmage J. Bittikofer, 1921
T:Complete in Thee, LMD
T:Public Domain
C:Talmage J. Bittikofer, 1921
Z:Public Domain
%%score ( 1 2 ) ( 3 4 )
L:1/8
M:3/4
K:F
V:1 treble 
V:2 treble 
V:3 bass 
V:4 bass 
V:1
 C2 [FA]2 [EG]2 | F6 [CF]2 [CE]2 [CD]2 | [CE]6 [B,C]2 [B,E]2 [A,F]2 | [B,G]6 [B,E]2 [B,C]2 [DB]2 | %4
 [CA]6 | C2 [FA]2 [EG]2 | F6 F2 [EG]2 [_EA]2 | [DB]6 [Fd]2 [Fd]2 [Fd]2 | [Fc]6 [FA]2 [EG]3 F | F6 | %10
 [Fc]2 [Fc]2 [Fc]2 | [Fc]6 [FA]2 [FG]2 F2 | [CE]6 [Ec]2 [Ec]2 [Ed]2 | [Ec]6 [EB]2 [EG]2 [E^G]2 | %14
 [FA]6 | C2 [FA]2 [EG]2 | F6 F2 [EG]2 [_EA]2 | [DB]6 [Fd]2 [Fd]2 [Fd]2 | [Fc]6 [EB]2 [EA]2 [EG]2 | %19
 F6 |] %20
V:2
 C2 x4 | F6 x6 | x12 | x12 | x6 | C2 x4 | F6 F2 x4 | x12 | x11 F | F6 | x6 | x10 F2 | x12 | x12 | %14
 x6 | C2 x4 | F6 F2 x4 | x12 | x12 | F6 |] %20
V:3
 [F,A,]2 [F,C]2 [F,B,]2 | [F,A,]6 [F,A,]2 [C,G,]2 [C,F,]2 | [C,G,]6 [C,E,]2 [C,G,]2 [C,F,]2 | %3
 [C,E,]6 [C,G,]2 [C,G,]2 [C,E,]2 | F,6 | [F,A,]2 [F,C]2 [F,B,]2 | [F,A,]6 [F,A,]2 [F,B,]2 [F,C]2 | %7
 [B,,B,]6 [=B,,^G,]2 [B,,G,]2 [B,,G,]2 | [C,A,]6 [C,C]2 [C,B,]3 [F,A,] | [F,A,]6 | %10
 [F,A,]2 [F,A,]2 [F,A,]2 | [F,A,]6 [F,C]2 [F,B,]2 [F,A,]2 | [G,C]6 [C,B,]2 [C,B,]2 [C,B,]2 | %13
 [C,B,]6 [C,G,]2 [C,C]2 [C,C]2 | [F,C]6 | [F,A,]2 [F,C]2 [F,B,]2 | [F,A,]6 [F,A,]2 [F,B,]2 [F,C]2 | %17
 [B,,B,]6 [=B,,^G,]2 [B,,G,]2 [B,,G,]2 | [C,A,]6 [C,G,]2 [C,C]2 [C,B,]2 | [F,A,]6 |] %20
V:4
 x6 | x12 | x12 | x12 | F,6 | x6 | x12 | x12 | x12 | x6 | x6 | x12 | x12 | x12 | x6 | x6 | x12 | %17
 x12 | x12 | x6 |] %20

